X:8716
T:Menuett
C:Tischer
R:Menuet
Z:Transcribed by Frank Nordberg - http://www.musicaviva.com
F:http://abc.musicaviva.com/tunes/tischer/tischer-menuett/tischer-menuett-1.abc
M:3/4
L:1/8
Q:1/4=123
K:Em
E2 B2 A2|G2 FG E2|c2 c2 c2|c2 B2 E2|
A2 A2 A2|G2 FG E2|F2 E2 ^D2|E4 z4::G2 GA BG|
A2 AB cA|(3Bcd c2 B2|A2 GF G2|e2 e2 e2|
e2 d2 G2|c2 c2 c2|B2 AB G2|A2 G2 F2|G4 z4:|
W:
W:
W:  From Musica Viva - http://www.musicaviva.com
W:  the Internet center for free sheet music downloads.
